images/feature-2.svg

<svg width="80" height="80" viewBox="0 0 80 80" fill="none" xmlns="http://www.w3.org/2000/svg">
<path d="M67.5 71.25H52.5C50.4325 71.25 48.75 69.5675 48.75 67.5C48.75 65.4325 50.4325 63.75 52.5 63.75H67.5C69.5675 63.75 71.25 65.4325 71.25 67.5C71.25 69.5675 69.5675 71.25 67.5 71.25Z" fill="#FF6E40"/>
<path d="M16.25 26.25H17.5V24.5075C17.5 22.1275 18.5063 19.88 20.2325 18.2987C20.8175 20.015 22.4437 21.25 24.3587 21.25H35.955C37.7887 21.25 39.3363 20.03 39.8338 18.3587C41.52 19.9362 42.5 22.1562 42.5 24.5075V26.25H43.75C44.7875 26.25 45.7262 26.6712 46.405 27.3525L47.4275 24.7962C48.305 22.6025 48.75 20.2912 48.75 17.93C48.75 12.525 46.3962 7.40748 42.2925 3.89123L38.9325 1.01123L38.19 1.38248C35.9363 2.50998 29.9875 4.18373 21.4425 6.09623C16.9137 7.10998 13.75 11.0662 13.75 15.715V15.7325L13.305 16.1775C11.98 17.5025 11.25 19.265 11.25 21.1387C11.25 22.2212 11.5063 23.3062 11.99 24.2762L13.5538 27.4025C14.2363 26.695 15.1888 26.25 16.25 26.25Z" fill="#FF6E40"/>
<path d="M25 27.5C25.6887 27.5 26.25 28.0612 26.25 28.75H28.75C28.75 26.6825 27.0675 25 25 25C22.9325 25 21.25 26.6825 21.25 28.75H23.75C23.75 28.0612 24.3112 27.5 25 27.5Z" fill="#EFE7E2"/>
<path d="M35 27.5C35.6887 27.5 36.25 28.0612 36.25 28.75H38.75C38.75 26.6825 37.0675 25 35 25C32.9325 25 31.25 26.6825 31.25 28.75H33.75C33.75 28.0612 34.3112 27.5 35 27.5Z" fill="#EFE7E2"/>
<path d="M36.1217 34.3375L36.1854 34.145L33.8142 33.3538L33.7504 33.5475C33.2117 35.1638 31.7042 36.25 30.0004 36.25C28.2967 36.25 26.7892 35.1638 26.2504 33.5463L26.1867 33.3538L23.8154 34.145L23.8792 34.3363C24.7579 36.9775 27.2179 38.75 30.0004 38.75C32.7829 38.75 35.2429 36.9775 36.1217 34.3375Z" fill="#EFE7E2"/>
<path d="M31.7529 10.2562L36.7529 6.50623L38.2529 8.50623L33.2529 12.2562L31.7529 10.2562Z" fill="#EFE7E2"/>
<path d="M75.5263 58.8025C75.975 58.0537 76.25 57.1862 76.25 56.25C76.25 54.1262 74.9137 52.32 73.0438 51.5962C73.4837 50.8937 73.75 50.07 73.75 49.1813C73.75 46.8813 72.03 44.9312 69.7463 44.6462L69.3337 44.595C65.665 44.1362 62.5325 41.7188 61.16 38.2863L60.605 36.8988L51.6413 42.5C49.8312 43.6312 48.75 45.5825 48.75 47.7175C48.75 48.4812 48.905 49.2137 49.1637 49.8975C48.5838 49.7137 47.9963 49.5537 47.3887 49.4475L40.8187 48.2875C38.7362 47.92 37.1025 46.2712 36.7563 44.1862L36.4175 42.1512C39.3125 40.6162 41.5887 38.0762 42.795 35H43.75C46.5075 35 48.75 32.7575 48.75 30C48.75 27.2425 46.5075 25 43.75 25V24.5062C43.75 22.075 42.8137 19.7275 41.175 17.9513C41.21 17.705 41.25 17.46 41.25 17.205C41.25 16.3875 41.0563 15.5688 40.6913 14.8363L39.8688 13.19L37.6325 14.3087L38.455 15.955C38.6488 16.3412 38.75 16.7738 38.75 17.205C38.75 18.7463 37.4963 20 35.955 20H31.5125C31.765 19.3625 32.1838 18.7962 32.7725 18.4037L34.4425 17.29L33.0562 15.21L31.3862 16.3238C30.09 17.1875 29.2125 18.5113 28.8913 20H26.25C26.25 18.0437 27.185 16.1738 28.75 15L30.75 13.5L29.25 11.5L27.25 13C25.075 14.6312 23.7738 17.2213 23.7537 19.9388C22.3288 19.6563 21.25 18.3987 21.25 16.8912C21.25 15.315 22.0025 13.81 23.2638 12.865L25.75 11L24.25 9L21.7637 10.865C19.8762 12.28 18.75 14.5325 18.75 16.8912C18.75 17.2437 18.7913 17.585 18.8538 17.9188C17.1962 19.7013 16.25 22.0575 16.25 24.5062V25C13.4925 25 11.25 27.2425 11.25 30C11.25 32.7575 13.4925 35 16.25 35H17.205C18.4112 38.0762 20.6875 40.6162 23.5825 42.1512L23.2437 44.1862C22.8962 46.2712 21.2638 47.92 19.1812 48.2875L12.6112 49.4475C6.0275 50.6075 1.25 56.3025 1.25 62.9875V78.75H73.75C76.5075 78.75 78.75 76.5075 78.75 73.75V62.5C78.75 60.6125 77.3438 59.0612 75.5263 58.8025ZM71.25 58.75H48.75C47.3713 58.75 46.25 57.6287 46.25 56.25C46.25 54.8713 47.3713 53.75 48.75 53.75H71.25C72.6288 53.75 73.75 54.8713 73.75 56.25C73.75 57.6287 72.6288 58.75 71.25 58.75ZM52.9663 44.6187L59.4688 40.5562C61.4013 44.115 64.9475 46.5662 69.025 47.075L69.4375 47.1263C70.4713 47.2562 71.25 48.1388 71.25 49.1813C71.25 50.3225 70.3213 51.25 69.18 51.25H53.9537L53.7475 51.18C52.2537 50.6838 51.25 49.2925 51.25 47.7175C51.25 46.45 51.8913 45.2912 52.9663 44.6187ZM46.25 30C46.25 31.3787 45.1287 32.5 43.75 32.5H43.5112C43.6612 31.6875 43.75 30.855 43.75 30V27.5C45.1287 27.5 46.25 28.6212 46.25 30ZM16.25 32.5C14.8713 32.5 13.75 31.3787 13.75 30C13.75 28.6212 14.8713 27.5 16.25 27.5V30C16.25 30.855 16.3387 31.6875 16.4888 32.5H16.25ZM18.75 30V24.5062C18.75 23.0363 19.2087 21.6113 20.035 20.42C21.0637 21.6788 22.61 22.5 24.3587 22.5H35.955C37.6075 22.5 39.0675 21.7238 40.0387 20.5338C40.8162 21.7025 41.25 23.085 41.25 24.5062V30C41.25 36.2025 36.2025 41.25 30 41.25C23.7975 41.25 18.75 36.2025 18.75 30ZM25.7087 44.5962L25.9513 43.14C27.2325 43.535 28.5912 43.75 30 43.75C31.4088 43.75 32.7675 43.535 34.0475 43.14L34.29 44.5962C34.705 47.0887 36.3537 49.1462 38.5825 50.1662C36.41 52.4287 33.395 53.75 30.2113 53.75H29.7887C26.6037 53.75 23.59 52.4287 21.4162 50.1662C23.645 49.1462 25.2937 47.0887 25.7087 44.5962ZM41.9212 76.25H13.75V63.75H11.25V76.25H3.75V62.9875C3.75 57.5175 7.65875 52.8587 13.045 51.9087L18.7537 50.9012C21.4213 54.2525 25.475 56.25 29.7887 56.25H30.2113C34.525 56.25 38.5788 54.2525 41.2463 50.9L46.475 51.8225C44.865 52.655 43.75 54.3162 43.75 56.25C43.75 57.1862 44.025 58.0537 44.4737 58.8025C42.6562 59.0612 41.25 60.6125 41.25 62.5V73.75C41.25 74.66 41.4937 75.5137 41.9212 76.25ZM76.25 73.75C76.25 75.1287 75.1288 76.25 73.75 76.25H46.25C44.8713 76.25 43.75 75.1287 43.75 73.75V62.5C43.75 61.81 44.3112 61.25 45 61.25H75C75.6888 61.25 76.25 61.81 76.25 62.5V73.75Z" fill="#EFE7E2"/>
</svg>

<svg width="80" height="80" fill="none" xmlns="http://www.w3.org/2000/svg"><path d="M67.5 71.25h-15a3.755 3.755 0 01-3.75-3.75 3.755 3.755 0 013.75-3.75h15a3.755 3.755 0 013.75 3.75 3.755 3.755 0 01-3.75 3.75zm-51.25-45h1.25v-1.742a8.422 8.422 0 012.733-6.21 4.36 4.36 0 004.126 2.952h11.596a4.049 4.049 0 003.879-2.891 8.42 8.42 0 012.666 6.148v1.743h1.25c1.038 0 1.976.421 2.655 1.102l1.023-2.556a18.411 18.411 0 001.322-6.866 18.466 18.466 0 00-6.458-14.039l-3.36-2.88-.742.371c-2.254 1.128-8.202 2.802-16.747 4.714-4.53 1.014-7.693 4.97-7.693 9.619v.018l-.445.444a6.971 6.971 0 00-2.055 4.962c0 1.082.256 2.167.74 3.137l1.564 3.127a3.734 3.734 0 012.696-1.153z" fill="#FF6E40"/><path d="M25 27.5c.689 0 1.25.561 1.25 1.25h2.5A3.755 3.755 0 0025 25a3.755 3.755 0 00-3.75 3.75h2.5c0-.689.561-1.25 1.25-1.25zm10 0c.689 0 1.25.561 1.25 1.25h2.5A3.755 3.755 0 0035 25a3.755 3.755 0 00-3.75 3.75h2.5c0-.689.561-1.25 1.25-1.25zm1.122 6.837l.063-.192-2.37-.791-.065.194A3.948 3.948 0 0130 36.25a3.948 3.948 0 01-3.75-2.704l-.063-.192-2.372.791.064.191A6.441 6.441 0 0030 38.75a6.442 6.442 0 006.122-4.413zm-4.369-24.081l5-3.75 1.5 2-5 3.75-1.5-2z" fill="#EFE7E2"/><path d="M75.526 58.803a4.95 4.95 0 00.724-2.553c0-2.124-1.336-3.93-3.206-4.654.44-.702.706-1.526.706-2.415 0-2.3-1.72-4.25-4.004-4.535l-.412-.051a10.163 10.163 0 01-8.174-6.309l-.555-1.387-8.964 5.601a6.118 6.118 0 00-2.891 5.218c0 .763.155 1.496.414 2.18a13.641 13.641 0 00-1.775-.45l-6.57-1.16a5.006 5.006 0 01-4.063-4.102l-.339-2.035A13.816 13.816 0 0042.795 35h.955c2.758 0 5-2.242 5-5s-2.242-5-5-5v-.494a9.7 9.7 0 00-2.575-6.555c.035-.246.075-.491.075-.746 0-.817-.194-1.636-.559-2.369l-.822-1.646-2.236 1.119.822 1.646a2.798 2.798 0 01-2.5 4.045h-4.442c.252-.637.67-1.204 1.26-1.596l1.67-1.114-1.387-2.08-1.67 1.114A5.9 5.9 0 0028.891 20H26.25c0-1.956.935-3.826 2.5-5l2-1.5-1.5-2-2 1.5a8.791 8.791 0 00-3.496 6.939 3.112 3.112 0 01-2.504-3.048c0-1.576.753-3.081 2.014-4.026L25.75 11l-1.5-2-2.486 1.865a7.567 7.567 0 00-3.014 6.026c0 .353.041.694.104 1.028a9.697 9.697 0 00-2.604 6.587V25c-2.758 0-5 2.242-5 5s2.242 5 5 5h.955a13.815 13.815 0 006.378 7.151l-.34 2.035a5.008 5.008 0 01-4.062 4.102l-6.57 1.16A13.728 13.728 0 001.25 62.987V78.75h72.5c2.757 0 5-2.243 5-5V62.5c0-1.888-1.406-3.439-3.224-3.697zm-4.276-.053h-22.5a2.503 2.503 0 01-2.5-2.5c0-1.379 1.121-2.5 2.5-2.5h22.5c1.379 0 2.5 1.121 2.5 2.5s-1.121 2.5-2.5 2.5zM52.966 44.619l6.503-4.063a12.663 12.663 0 009.556 6.519l.412.051a2.073 2.073 0 011.813 2.055 2.071 2.071 0 01-2.07 2.069H53.954l-.206-.07a3.643 3.643 0 01-2.498-3.462c0-1.268.641-2.427 1.716-3.1zM46.25 30c0 1.379-1.121 2.5-2.5 2.5h-.239c.15-.813.239-1.645.239-2.5v-2.5c1.379 0 2.5 1.121 2.5 2.5zm-30 2.5a2.503 2.503 0 01-2.5-2.5c0-1.379 1.121-2.5 2.5-2.5V30c0 .855.089 1.688.239 2.5h-.239zm2.5-2.5v-5.494a7.18 7.18 0 011.285-4.086c1.029 1.259 2.575 2.08 4.324 2.08h11.596c1.653 0 3.113-.776 4.084-1.966a7.187 7.187 0 011.211 3.972V30c0 6.203-5.047 11.25-11.25 11.25S18.75 36.203 18.75 30zm6.959 14.596l.242-1.456a13.717 13.717 0 008.096 0l.243 1.456c.415 2.493 2.064 4.55 4.293 5.57a11.62 11.62 0 01-8.372 3.584h-.422a11.622 11.622 0 01-8.373-3.584c2.229-1.02 3.878-3.077 4.293-5.57zM41.92 76.25H13.75v-12.5h-2.5v12.5h-7.5V62.987c0-5.47 3.909-10.128 9.295-11.078l5.709-1.008c2.667 3.351 6.721 5.349 11.035 5.349h.422c4.314 0 8.368-1.998 11.035-5.35l5.229.922c-1.61.833-2.725 2.494-2.725 4.428 0 .936.275 1.804.724 2.553-1.818.258-3.224 1.81-3.224 3.697v11.25c0 .91.244 1.764.671 2.5zm34.329-2.5c0 1.379-1.121 2.5-2.5 2.5h-27.5a2.503 2.503 0 01-2.5-2.5V62.5c0-.69.561-1.25 1.25-1.25h30c.689 0 1.25.56 1.25 1.25v11.25z" fill="#EFE7E2"/></svg>
